X:18
T:Cluck Old Hen
R: Reel
C: Traditional
M: 4/4
L: 1/8
K: Ador
|"A"e2a2 "G"g3 g| "A"e2 a2 "G"d4 | "A"e2 a2 "G"g2 ag | "E"edc2"A"A4|
w: 1.~My old hen she's a good old hen. She lays eggs for the rail-road men.
w:2.~I had an'old hen, she had'a wooden leg. Best darn hen that ever laid an egg.
w:3.~My old hen she's a good old hen. She lays eggs for the rail-road men.
w:4.~My old hen she just wo-n't do. She lays eggs and tai--ters too
|"A"e2a2 "G"g3 g| "A"e2 a2 "G"d4 | "A"e2 a2 "G"g2 ag |"E"edc2"A"A4|
w:   Some-times eight and some-times ten, That's e-nough for the rail-*road men.
w: Poured hot water down her wooden leg. Dang 'ol hen laid a hard boil-ed egg. 
w: Some-times 1,* some-times 2, Some-times e-nough for the whole damn crew.
w: First time she cackled cackled in'the lot. Next time she cack-les cackle in the pot.
| "Am"A2A2 "C"[c4e4] | "Am"A2A2 "G"G3G | "Am"A2AA c2d2 | "E"edc2 "Am"A4 |
w:Cluck old hen cluck and sing,     You ain't laid an egg since way-* last spring.
|: "Am"A2A2 "C"[c4e4] | "Am"A2A2 "G"G3G | "Am"A2AA c2d2 | "E"edc2 "Am"A4 :|
w:   Cluck old hen cluck and squ-all,   Ain't laid an egg since way-* last fall.


